Papirus/24x24/panel/skype-status-away.svg

<?xml version="1.0" encoding="UTF-8" standalone="no"?>
<svg id="svg2817" xmlns:rdf="http://www.w3.org/1999/02/22-rdf-syntax-ns#" xmlns="http://www.w3.org/2000/svg" xmlns:osb="http://www.openswatchbook.org/uri/2009/osb" height="24" width="24" version="1.0" xmlns:cc="http://creativecommons.org/ns#" xmlns:dc="http://purl.org/dc/elements/1.1/">
 <metadata id="metadata57">
  <rdf:RDF>
   <cc:Work rdf:about="">
    <dc:format>image/svg+xml</dc:format>
    <dc:type rdf:resource="http://purl.org/dc/dcmitype/StillImage"/>
    <dc:title/>
   </cc:Work>
  </rdf:RDF>
 </metadata>
 <path id="path4708" d="m8 4a4 4 0 0 0 -4 4 4 4 0 0 0 1.1152 2.77 7 7 0 0 0 -0.1152 1.23 7 7 0 0 0 7 7 7 7 0 0 0 1.238 -0.113 4 4 0 0 0 2.762 1.113 4 4 0 0 0 4 -4 4 4 0 0 0 -1.115 -2.77 7 7 0 0 0 0.115 -1.23 7 7 0 0 0 -7 -7 7 7 0 0 0 -1.238 0.1133 4 4 0 0 0 -2.762 -1.1133zm4 5.0898v2h4v2h-4v2l-5-3 5-3z" fill="#fff"/>
</svg>

<?xml version="1.0" encoding="UTF-8" standalone="no"?>
<svg xmlns:osb="http://www.openswatchbook.org/uri/2009/osb" xmlns:dc="http://purl.org/dc/elements/1.1/" xmlns:cc="http://creativecommons.org/ns#" xmlns:rdf="http://www.w3.org/1999/02/22-rdf-syntax-ns#" xmlns:svg="http://www.w3.org/2000/svg" xmlns="http://www.w3.org/2000/svg" version="1.0" width="24" height="24" id="svg2817">
    <defs id="defs429">
        <linearGradient id="linearGradient5606" osb:paint="solid">
            <stop id="stop5608" offset="0" style="stop-color:#000000;stop-opacity:1;"/>
        </linearGradient>
    </defs>
    <metadata id="metadata57">
        <rdf:RDF>
            <cc:Work rdf:about="">
                <dc:format>
                    image/svg+xml
                </dc:format>
                <dc:type rdf:resource="http://purl.org/dc/dcmitype/StillImage"/>
                <dc:title/>
            </cc:Work>
        </rdf:RDF>
    </metadata>
    <path id="path4708" d="M 8,4 A 4,4 0 0 0 4,8 4,4 0 0 0 5.1152344,10.769531 7,7 0 0 0 5,12 7,7 0 0 0 12,19 7,7 0 0 0 13.238281,18.886719 4,4 0 0 0 16,20 4,4 0 0 0 20,16 4,4 0 0 0 18.884766,13.230469 7,7 0 0 0 19,12 7,7 0 0 0 12,5 7,7 0 0 0 10.761719,5.1132812 4,4 0 0 0 8,4 Z m 4,5.089844 0,2 4,0 0,2 -4,0 0,2 -5,-3 5,-3 z" style="opacity:1;fill:#ffffff;fill-opacity:1;stroke:none;stroke-width:2;stroke-linecap:round;stroke-linejoin:round;stroke-miterlimit:4;stroke-dasharray:none;stroke-opacity:1"/>
</svg>
